public/images/icon_id_sector_empresa_47.svg

<svg width="42" height="42" viewBox="0 0 42 42" fill="none" xmlns="http://www.w3.org/2000/svg">
<path d="M15.5531 21.6693C14.7656 21.6693 14.0569 21.1443 13.8469 20.3568L13.4925 19.0049C13.2431 18.0599 13.8075 17.0887 14.7394 16.8393C15.6713 16.5899 16.6556 17.1543 16.905 18.0862L17.2594 19.4381C17.3775 19.8974 17.325 20.3699 17.0888 20.7768C16.8525 21.1837 16.4719 21.4856 16.0125 21.6037C15.855 21.6431 15.7106 21.6693 15.5531 21.6693ZM15.1856 18.0599C15.1856 18.0599 15.1069 18.0599 15.0544 18.0731C14.7919 18.1387 14.6344 18.4143 14.7131 18.6768L15.0675 20.0156C15.1331 20.2781 15.4088 20.4356 15.6713 20.3568C15.8025 20.3174 15.9075 20.2387 15.9731 20.1337C16.0388 20.0156 16.0519 19.8843 16.0256 19.7662L15.6713 18.4143C15.6188 18.1912 15.4088 18.0468 15.1988 18.0468L15.1856 18.0599Z" fill="url(#paint0_linear_133_1162)"/>
<path d="M26.4469 21.6692C26.2894 21.6692 26.145 21.6429 25.9875 21.6036C25.5281 21.4854 25.1475 21.1836 24.9113 20.7767C24.675 20.3698 24.6094 19.8973 24.7275 19.4379L25.0819 18.0861C25.3313 17.1411 26.3025 16.5898 27.2475 16.8392C27.7069 16.9573 28.0875 17.2592 28.3238 17.6661C28.56 18.0729 28.6256 18.5586 28.4944 19.0048L28.14 20.3567C28.0219 20.8161 27.72 21.1967 27.3131 21.4329C27.0375 21.5904 26.7356 21.6692 26.4338 21.6692H26.4469ZM26.8013 18.0598C26.5913 18.0598 26.3813 18.2042 26.3288 18.4273L25.9744 19.7792C25.935 19.9104 25.9613 20.0417 26.0269 20.1467C26.0925 20.2648 26.1975 20.3436 26.3288 20.3698C26.46 20.3961 26.5913 20.3829 26.6963 20.3173C26.8144 20.2517 26.8931 20.1467 26.9194 20.0154L27.2738 18.6636C27.3131 18.5323 27.2869 18.4011 27.2213 18.2961C27.1556 18.1779 27.0506 18.0992 26.9194 18.0598C26.88 18.0598 26.8406 18.0467 26.7881 18.0467L26.8013 18.0598Z" fill="url(#paint1_linear_133_1162)"/>
<path d="M18.795 18.8344C17.8238 18.8344 17.0231 18.0338 17.0231 17.0625V15.6713C17.0231 14.7 17.8106 13.8994 18.795 13.8994C19.7794 13.8994 20.5669 14.7 20.5669 15.6713V17.0625C20.5669 18.0338 19.7663 18.8344 18.795 18.8344ZM18.795 15.1725C18.5194 15.1725 18.3094 15.3957 18.3094 15.6582V17.0494C18.3094 17.325 18.5325 17.535 18.795 17.535C19.0575 17.535 19.2806 17.3119 19.2806 17.0494V15.6582C19.2806 15.3825 19.0575 15.1725 18.795 15.1725Z" fill="url(#paint2_linear_133_1162)"/>
<path d="M23.205 18.8344C22.2338 18.8344 21.4331 18.0338 21.4331 17.0625V15.6713C21.4331 14.7 22.2338 13.8994 23.205 13.8994C24.1763 13.8994 24.9769 14.7 24.9769 15.6713V17.0625C24.9769 18.0338 24.1763 18.8344 23.205 18.8344ZM23.205 15.1725C22.9294 15.1725 22.7194 15.3957 22.7194 15.6582V17.0494C22.7194 17.325 22.9425 17.535 23.205 17.535C23.4675 17.535 23.6906 17.3119 23.6906 17.0494V15.6582C23.6906 15.3825 23.4675 15.1725 23.205 15.1725Z" fill="url(#paint3_linear_133_1162)"/>
<path d="M25.9744 37.0781H16.0125C14.805 37.0781 13.8206 36.0937 13.8206 34.8862V29.0849C13.8206 28.5862 13.4138 28.1662 12.9019 28.1662H7.10063C5.89313 28.1662 4.90875 27.1818 4.90875 25.9743V16.0124C4.90875 14.8049 5.89313 13.8206 7.10063 13.8206H12.9019C13.4006 13.8206 13.8206 13.4137 13.8206 12.9018V7.10057C13.8206 5.89307 14.805 4.90869 16.0125 4.90869H25.9744C27.1819 4.90869 28.1663 5.89307 28.1663 7.10057V12.9018C28.1663 13.4006 28.5731 13.8206 29.085 13.8206H30.6206C30.975 13.8206 31.2638 14.1093 31.2638 14.4637C31.2638 14.8181 30.975 15.1068 30.6206 15.1068H29.085C27.8775 15.1068 26.8931 14.1224 26.8931 12.9149V7.11369C26.8931 6.61494 26.4863 6.19494 25.9744 6.19494H16.0125C15.5138 6.19494 15.0938 6.60182 15.0938 7.11369V12.9149C15.0938 14.1224 14.1094 15.1068 12.9019 15.1068H7.10063C6.60188 15.1068 6.18188 15.5137 6.18188 16.0256V25.9874C6.18188 26.4862 6.58875 26.9062 7.10063 26.9062H12.9019C14.1094 26.9062 15.0938 27.8906 15.0938 29.0981V34.8993C15.0938 35.3981 15.5006 35.8181 16.0125 35.8181H25.9744C26.4731 35.8181 26.8931 35.4112 26.8931 34.8993V29.0981C26.8931 27.8906 27.8775 26.9062 29.085 26.9062H34.8863C35.385 26.9062 35.805 26.4993 35.805 25.9874V16.0256C35.805 15.5268 35.3981 15.1068 34.8863 15.1068H33.3113C32.9569 15.1068 32.6681 14.8181 32.6681 14.4637C32.6681 14.1093 32.9569 13.8206 33.3113 13.8206H34.8863C36.0938 13.8206 37.0781 14.8049 37.0781 16.0124V25.9743C37.0781 27.1818 36.0938 28.1662 34.8863 28.1662H29.085C28.5863 28.1662 28.1663 28.5731 28.1663 29.0849V34.8862C28.1663 36.0937 27.1819 37.0781 25.9744 37.0781Z" fill="url(#paint4_linear_133_1162)"/>
<path d="M19.0313 28.1004C19.0313 28.1004 18.9 28.1004 18.8475 28.1004C17.6925 28.0347 16.6425 27.3916 16.0519 26.381C15.8681 26.0791 15.9731 25.6854 16.2881 25.5016C16.59 25.331 16.9838 25.4229 17.1675 25.7379C17.535 26.381 18.1913 26.7879 18.9263 26.8272C19.32 26.8272 19.7138 26.7616 20.0681 26.5779C20.6588 26.2629 21.3806 26.2629 21.9713 26.5779C22.3125 26.7616 22.7194 26.8404 23.1131 26.8272C24.2288 26.7616 25.1344 25.8429 25.1606 24.7141C25.1869 23.7954 24.6225 22.9554 23.7694 22.6272C23.4281 22.496 23.1394 22.2335 22.9688 21.9054C22.6013 21.1572 21.8531 20.6979 21.0263 20.6979C20.1994 20.6979 19.4513 21.1572 19.0838 21.9054C18.9131 22.2466 18.6375 22.496 18.2831 22.6272C17.7713 22.8241 17.3513 23.2047 17.1019 23.7035C16.9444 24.0185 16.5638 24.1497 16.2488 23.9922C15.9338 23.8347 15.8025 23.4541 15.96 23.1391C16.3406 22.3516 17.01 21.7479 17.8238 21.4329C17.8631 21.4197 17.9025 21.3804 17.9288 21.3279C18.5194 20.1466 19.7006 19.4116 21.0131 19.4116C22.3256 19.4116 23.52 20.1466 24.0975 21.3279C24.1238 21.3804 24.1631 21.4066 24.2025 21.4329C25.5675 21.9579 26.46 23.2835 26.4206 24.7404C26.3813 26.5254 24.9506 28.0085 23.1656 28.1004C22.5356 28.1397 21.9056 27.9954 21.3544 27.6935C21.1444 27.5754 20.8688 27.5754 20.6588 27.6935C20.16 27.956 19.5956 28.1004 19.0313 28.1004Z" fill="url(#paint5_linear_133_1162)"/>
<defs>
<linearGradient id="paint0_linear_133_1162" x1="15.3384" y1="16.7803" x2="17.3313" y2="17.7561" gradientUnits="userSpaceOnUse">
<stop stop-color="#192644"/>
<stop offset="1" stop-color="#1A4081"/>
</linearGradient>
<linearGradient id="paint1_linear_133_1162" x1="26.5771" y1="16.7793" x2="28.5715" y2="17.7567" gradientUnits="userSpaceOnUse">
<stop stop-color="#192644"/>
<stop offset="1" stop-color="#1A4081"/>
</linearGradient>
<linearGradient id="paint2_linear_133_1162" x1="18.76" y1="13.8994" x2="20.6441" y2="14.7328" gradientUnits="userSpaceOnUse">
<stop stop-color="#192644"/>
<stop offset="1" stop-color="#1A4081"/>
</linearGradient>
<linearGradient id="paint3_linear_133_1162" x1="23.17" y1="13.8994" x2="25.0541" y2="14.7328" gradientUnits="userSpaceOnUse">
<stop stop-color="#192644"/>
<stop offset="1" stop-color="#1A4081"/>
</linearGradient>
<linearGradient id="paint4_linear_133_1162" x1="20.6755" y1="4.90869" x2="35.501" y2="14.0401" gradientUnits="userSpaceOnUse">
<stop stop-color="#192644"/>
<stop offset="1" stop-color="#1A4081"/>
</linearGradient>
<linearGradient id="paint5_linear_133_1162" x1="21.0535" y1="19.4116" x2="25.3543" y2="22.6192" gradientUnits="userSpaceOnUse">
<stop stop-color="#192644"/>
<stop offset="1" stop-color="#1A4081"/>
</linearGradient>
</defs>
</svg>

<svg xmlns="http://www.w3.org/2000/svg" fill="none" viewBox="0 0 42 42"><path fill="url(#a)" d="M15.55 21.67c-.78 0-1.5-.53-1.7-1.31L13.49 19a1.78 1.78 0 0 1 1.25-2.16c.93-.25 1.92.31 2.17 1.25l.35 1.35a1.76 1.76 0 0 1-1.7 2.23Zm-.36-3.61-.14.01a.48.48 0 0 0-.34.6l.36 1.35c.06.26.34.42.6.34a.53.53 0 0 0 .3-.23.52.52 0 0 0 .06-.36l-.36-1.36a.49.49 0 0 0-.47-.36l-.01.01Z"/><path fill="url(#b)" d="M26.45 21.67c-.16 0-.3-.03-.46-.07a1.75 1.75 0 0 1-1.08-.82c-.23-.41-.3-.88-.18-1.34l.35-1.35a1.77 1.77 0 0 1 3.24-.42c.24.4.3.89.17 1.33l-.35 1.36a1.75 1.75 0 0 1-1.7 1.3Zm.35-3.61a.49.49 0 0 0-.47.37l-.36 1.35a.45.45 0 0 0 .06.37c.06.11.17.2.3.22a.5.5 0 0 0 .37-.05c.11-.07.2-.17.22-.3l.35-1.36a.45.45 0 0 0-.05-.36.5.5 0 0 0-.3-.24l-.13-.01.01.01Z"/><path fill="url(#c)" d="M18.8 18.83c-.98 0-1.78-.8-1.78-1.77v-1.39a1.77 1.77 0 0 1 3.55 0v1.4c0 .96-.8 1.76-1.77 1.76Zm0-3.66a.48.48 0 0 0-.5.49v1.39a.48.48 0 1 0 .98 0v-1.4a.48.48 0 0 0-.48-.48Z"/><path fill="url(#d)" d="M23.2 18.83c-.97 0-1.77-.8-1.77-1.77v-1.39c0-.97.8-1.77 1.77-1.77.98 0 1.78.8 1.78 1.77v1.4c0 .96-.8 1.76-1.78 1.76Zm0-3.66a.48.48 0 0 0-.48.49v1.39a.48.48 0 1 0 .97 0v-1.4a.48.48 0 0 0-.49-.48Z"/><path fill="url(#e)" d="M25.97 37.08h-9.96a2.2 2.2 0 0 1-2.19-2.2v-5.8c0-.5-.4-.91-.92-.91H7.1a2.2 2.2 0 0 1-2.2-2.2v-9.96c0-1.2 1-2.19 2.2-2.19h5.8c.5 0 .92-.4.92-.92V7.1c0-1.2.98-2.2 2.2-2.2h9.95c1.21 0 2.2 1 2.2 2.2v5.8c0 .5.4.92.91.92h1.54a.64.64 0 0 1 0 1.29h-1.54a2.2 2.2 0 0 1-2.19-2.2v-5.8c0-.5-.4-.92-.92-.92h-9.96c-.5 0-.92.41-.92.92v5.8c0 1.21-.98 2.2-2.19 2.2H7.1c-.5 0-.92.4-.92.92v9.96c0 .5.4.92.92.92h5.8c1.2 0 2.2.98 2.2 2.19v5.8c0 .5.4.92.91.92h9.96c.5 0 .92-.4.92-.92v-5.8c0-1.2.99-2.2 2.2-2.2h5.8c.5 0 .91-.4.91-.91v-9.96c0-.5-.4-.92-.91-.92H33.3a.64.64 0 0 1 0-1.29h1.58c1.2 0 2.19.98 2.19 2.2v9.95c0 1.21-.99 2.2-2.2 2.2h-5.8c-.5 0-.91.4-.91.91v5.8c0 1.21-.99 2.2-2.2 2.2Z"/><path fill="url(#f)" d="M19.03 28.1h-.18a3.47 3.47 0 0 1-2.8-1.72.64.64 0 0 1 .24-.88c.3-.17.7-.08.88.24a2.15 2.15 0 0 0 2.9.84c.59-.32 1.31-.32 1.9 0a2.18 2.18 0 1 0 1.8-3.95c-.34-.13-.63-.4-.8-.72a2.15 2.15 0 0 0-1.94-1.21c-.83 0-1.58.46-1.95 1.2-.17.35-.44.6-.8.73-.5.2-.93.57-1.18 1.07a.64.64 0 1 1-1.14-.56 3.44 3.44 0 0 1 1.86-1.7.2.2 0 0 0 .1-.11 3.43 3.43 0 0 1 6.18 0c.02.05.06.08.1.1a3.45 3.45 0 1 1-2.85 6.26.73.73 0 0 0-.7 0c-.49.27-1.05.41-1.62.41Z"/><defs><linearGradient id="a" x1="15.34" x2="17.33" y1="16.78" y2="17.76" gradientUnits="userSpaceOnUse"><stop stop-color="#192644"/><stop offset="1" stop-color="#1A4081"/></linearGradient><linearGradient id="b" x1="26.58" x2="28.57" y1="16.78" y2="17.76" gradientUnits="userSpaceOnUse"><stop stop-color="#192644"/><stop offset="1" stop-color="#1A4081"/></linearGradient><linearGradient id="c" x1="18.76" x2="20.64" y1="13.9" y2="14.73" gradientUnits="userSpaceOnUse"><stop stop-color="#192644"/><stop offset="1" stop-color="#1A4081"/></linearGradient><linearGradient id="d" x1="23.17" x2="25.05" y1="13.9" y2="14.73" gradientUnits="userSpaceOnUse"><stop stop-color="#192644"/><stop offset="1" stop-color="#1A4081"/></linearGradient><linearGradient id="e" x1="20.68" x2="35.5" y1="4.91" y2="14.04" gradientUnits="userSpaceOnUse"><stop stop-color="#192644"/><stop offset="1" stop-color="#1A4081"/></linearGradient><linearGradient id="f" x1="21.05" x2="25.35" y1="19.41" y2="22.62" gradientUnits="userSpaceOnUse"><stop stop-color="#192644"/><stop offset="1" stop-color="#1A4081"/></linearGradient></defs></svg>
